static/assets/img/icons/theme/map/direction-1.svg

<svg height="24" viewBox="0 0 24 24" width="24" xmlns="http://www.w3.org/2000/svg"><g fill="none" fill-rule="evenodd"><path d="m0 0h24v24h-24z" opacity="0"/><path d="m12 16.381038v-9.90890205l-6.00539517 12.01079035zm-9.11769982 3.8543616 8.40215802-16.80431609c.1975914-.3951828.6781299-.55536228 1.0733127-.35777088.1548219.07741096.2803599.20294895.3577709.35777088l8.402158 16.80431609c.1975914.3951828.0374119.8757213-.3577709 1.0733127-.1934767.0967383-.4178818.1110042-.6220512.0395449l-8.1378777-2.8482572-8.13787773 2.8482572c-.41702286.145958-.87340902-.0737835-1.01936702-.4908063-.07145928-.2041694-.05719343-.4285745.03954493-.6220513z" fill="#000" fill-rule="nonzero"/></g></svg>

<svg width="24px" height="24px" viewBox="0 0 24 24" version="1.1" xmlns="http://www.w3.org/2000/svg" xmlns:xlink="http://www.w3.org/1999/xlink">
    <title>Icon For Direction#1</title>
    <g stroke="none" stroke-width="1" fill="none" fill-rule="evenodd">
        <rect opacity="0" x="0" y="0" width="24" height="24"></rect>
        <path d="M12,16.381038 L12,6.47213595 L5.99460483,18.4829263 L12,16.381038 Z M2.88230018,20.2353996 L11.2844582,3.43108351 C11.4820496,3.03590071 11.9625881,2.87572123 12.3577709,3.07331263 C12.5125928,3.15072359 12.6381308,3.27626158 12.7155418,3.43108351 L21.1176998,20.2353996 C21.3152912,20.6305824 21.1551117,21.1111209 20.7599289,21.3087123 C20.5664522,21.4054506 20.3420471,21.4197165 20.1378777,21.3482572 L12,18.5 L3.86212227,21.3482572 C3.44509941,21.4942152 2.98871325,21.2744737 2.84275525,20.8574509 C2.77129597,20.6532815 2.78556182,20.4288764 2.88230018,20.2353996 Z" fill="#000000" fill-rule="nonzero"></path>
    </g>
</svg>
